ix/filter-search_twotone.svg

<svg viewBox="0 0 24 24" fill="none" xmlns="http://www.w3.org/2000/svg" height="1em" width="1em">
  <path opacity="0.4" d="M14.3206 19.0698C14.3206 19.6798 13.9205 20.4798 13.4105 20.7898L12.0005 21.6998C10.6905 22.5098 8.87054 21.5998 8.87054 19.9798V14.6298C8.87054 13.9198 8.47055 13.0098 8.06055 12.5098L4.22052 8.46976C3.71052 7.95976 3.31055 7.05977 3.31055 6.44977V4.12976C3.31055 2.91976 4.22057 2.00977 5.33057 2.00977H18.6705C19.7805 2.00977 20.6906 2.91975 20.6906 4.02975V6.24976C20.6906 7.05976 20.1805 8.06976 19.6805 8.56976" stroke="#292D32" stroke-width="1.5" stroke-miterlimit="10" stroke-linecap="round" stroke-linejoin="round"/>
  <path d="M16.0692 16.5201C17.8365 16.5201 19.2692 15.0874 19.2692 13.3201C19.2692 11.5528 17.8365 10.1201 16.0692 10.1201C14.3018 10.1201 12.8691 11.5528 12.8691 13.3201C12.8691 15.0874 14.3018 16.5201 16.0692 16.5201Z" stroke="#292D32" stroke-width="1.5" stroke-linecap="round" stroke-linejoin="round"/>
  <path d="M19.8691 17.1201L18.8691 16.1201" stroke="#292D32" stroke-width="1.5" stroke-linecap="round" stroke-linejoin="round"/>
</svg>

<svg viewBox="0 0 24 24" fill="none" xmlns="http://www.w3.org/2000/svg" height="1em" width="1em">
  <path opacity=".4" d="M14.32 19.07c0 .61-.4 1.41-.91 1.72L12 21.7c-1.31.81-3.13-.1-3.13-1.72v-5.35c0-.71-.4-1.62-.81-2.12L4.22 8.47c-.51-.51-.91-1.41-.91-2.02V4.13c0-1.21.91-2.12 2.02-2.12h13.34c1.11 0 2.02.91 2.02 2.02v2.22c0 .81-.51 1.82-1.01 2.32" stroke="#292D32" stroke-width="1.5" stroke-miterlimit="10" stroke-linecap="round" stroke-linejoin="round"/>
  <path d="M16.07 16.52a3.2 3.2 0 1 0 0-6.4 3.2 3.2 0 0 0 0 6.4Zm3.8.6-1-1" stroke="#292D32" stroke-width="1.5" stroke-linecap="round" stroke-linejoin="round"/>
</svg>
